assets/crypto-lib-small.svg

<svg height="64" viewBox="0 0 289 64" width="289" xmlns="http://www.w3.org/2000/svg" xmlns:xlink="http://www.w3.org/1999/xlink"><linearGradient id="a" x1="50%" x2="50%" y1="23.090894%" y2="94.501%"><stop offset="0" stop-color="#ea38ff"/><stop offset="1" stop-color="#7d2cfe"/></linearGradient><g fill="url(#a)"><g transform="translate(.75 .8125)"><path d="m6.74939122 21.1309071v3.1747013c0 3.373031 2.6798284 6.0516703 6.05452398 6.0516703h5.5582243v-3.0755364h-5.5582243c-1.6874667 0-2.97756066-1.3887832-2.97756066-2.9761339v-3.2738661c1.48866146-.5952268 2.48126096-2.0831748 2.48126096-3.6705255 0-2.1825774-1.7866316-4.0674226-4.06932504-4.0674226-2.18376645 0-4.06956281 1.7856803-4.06956281 4.0674226 0 1.7856803.99259949 3.2738661 2.58066357 3.7696903"/><path d="m12.8039152 49.2064436h5.5582243v-3.0752987h-5.5582243c-3.37469558 0-6.05452398 2.6784016-6.05452398 6.0514325v2.4803097c-1.48889925.594989-2.58066357 2.0831748-2.58066357 3.7696903 0 2.1825775 1.78663153 4.0674226 4.06956281 4.0674226 2.18352864 0 4.06932504-1.7856803 4.06932504-4.0674226 0-1.6865155-.9925995-3.0752987-2.48126096-3.6705254v-2.4803097c-.09940263-1.6862777 1.29009396-3.0752987 2.97756066-3.0752987"/><path d="m4.16872765 42.3612168c1.6872289 0 3.17612814-.9921239 3.77159272-2.4803097h10.42181913v-3.0752987h-10.52098396c-.59546457-1.4881858-2.08436382-2.4803097-3.77159272-2.4803097-2.18376646.0002378-4.06956282 1.7861559-4.06956282 4.0678982.10061059 2.2266249 1.93984973 3.9774168 4.16872765 3.9683289"/><path d="m82.7788505 24.4047732v-3.1747013c1.4886615-.594989 2.5806636-2.0831748 2.5806636-3.7696903 0-2.1825774-1.7866315-4.0674225-4.0695628-4.0674225-2.1835287 0-4.069325 1.7856803-4.069325 4.0674225 0 1.6865155.9923617 3.0752987 2.4812609 3.6705255v3.2738661c0 1.6865155-1.3894966 2.9761339-2.9775607 2.9761339h-5.5582242v3.0755365h5.5582242c3.3744578 0 6.054524-2.7778042 6.054524-6.0516704"/><path d="m79.8010521 52.2817423v2.4803097c-1.4886615.5952267-2.481261 2.0831748-2.481261 3.6705254 0 2.1825775 1.7866315 4.0674226 4.0695628 4.0674226 2.1835287 0 4.069325-1.7856803 4.069325-4.0674226 0-1.6865155-1.0917643-3.1747013-2.5804257-3.7696903v-2.4803097c0-3.3730309-2.6800662-6.0514325-6.0547618-6.0514325h-5.5582243v3.0752987h5.5582243c1.588064 0 2.9775607 1.3887832 2.9775607 3.0752987"/><path d="m85.3595141 34.3254669c-1.6872289 0-3.1761281.9919557-3.7715927 2.4803793h-10.3226543v3.0750609h10.4218191c.5954646 1.4881858 2.0843638 2.4803097 3.7715927 2.4803097 2.1837665 0 4.0695629-1.7859181 4.0695629-4.0676604-.1008542-2.2264765-1.9399865-3.9770617-4.1687277-3.9680895"/><path d="m25.8063979 57.0437942h37.9156838c2.2826934 0 4.0690872-1.7859181 4.0690872-4.0674225v-26.2898562c0-2.2817423-1.7863938-4.0674226-4.0693251-4.0674226h-3.6724278v-7.3410509c0-8.43257742-6.8487939-15.278042-15.285414-15.278042s-15.2851762 6.84522677-15.2851762 15.2778042v7.3412887h-3.6724279c-2.2829313 0-4.0695628 1.7856803-4.0695628 4.0674226v26.2898562c0 2.2815044 1.7866315 4.0674225 4.0695628 4.0674225zm23.0271669-9.3255365c.1985675.5952268-.2977323 1.2898562-.9925995 1.2898562h-6.054524c-.6946294 0-1.0917643-.5954646-.9925995-1.2898562l1.4886614-5.8531028c-.9923617-.7937943-1.5878262-1.9842478-1.5878262-3.2738662 0-2.2817422 1.8857963-4.1665874 4.1687276-4.1665874s4.1687277 1.8848452 4.1687277 4.1665874c0 1.3887832-.5957024 2.5792368-1.5880641 3.2738662zm-13.4987824-32.4404535c0-5.2578761 4.2681302-9.42470132 9.4292196-9.42470132 5.2607298 0 9.4292196 4.26599002 9.4292196 9.42470132v7.3412887h-18.8584392v-7.3410509z"/></g><g transform="translate(105.4375 20.1875)"><path d="m11.635 24.0175c-3.22833333 0-5.97458333-1.0941667-8.23875-3.2825s-3.39625-5.0916667-3.39625-8.71c0-3.59666667 1.14833333-6.5 3.445-8.71s5.01583333-3.315 8.1575-3.315c2.7733333 0 5.05375.70416667 6.84125 2.1125s2.9629167 3.19583333 3.52625 5.3625l-3.6725 1.235c-.3683333-1.495-1.1158333-2.70833333-2.2425-3.64s-2.6108333-1.3975-4.4525-1.3975c-2.05833333 0-3.84041667.73125-5.34625 2.19375s-2.25875 3.51541667-2.25875 6.15875c0 2.5783333.7475 4.59875 2.2425 6.06125s3.29333333 2.19375 5.395 2.19375c1.7983333 0 3.2825-.4875 4.4525-1.4625s1.9716667-2.1775 2.405-3.6075l3.575 1.17c-.5633333 2.145-1.7495833 3.9541667-3.55875 5.4275s-4.1004167 2.21-6.87375 2.21z"/><path d="m37.6675 23.53-4.8425-9.1h-2.86v9.1h-3.9325v-23.0425h8.84c2.1666667 0 3.9108333.66625 5.2325 1.99875s1.9825 2.99541667 1.9825 4.98875c0 1.64666667-.4658333 3.055-1.3975 4.225s-2.1991667 1.95-3.8025 2.34l5.2 9.49zm-7.7025-12.545h4.1925c1.1916667 0 2.1504167-.3195833 2.87625-.95875.7258333-.63916667 1.08875-1.48958333 1.08875-2.55125 0-1.08333333-.3629167-1.94458333-1.08875-2.58375s-1.6845833-.95875-2.87625-.95875h-4.1925z"/><path d="m51.545 13.78-8.06-13.2925h4.615l5.525 9.6525 5.5575-9.6525h4.3875l-8.125 13.2925v9.75h-3.9z"/><path d="m70.5575 11.0825h4.0625c1.235 0 2.2045833-.3195833 2.90875-.95875.7041667-.63916667 1.05625-1.50041667 1.05625-2.58375 0-1.105-.3520833-1.9825-1.05625-2.6325s-1.67375-.975-2.90875-.975h-4.0625zm4.6475 3.445h-4.6475v9.0025h-3.9v-23.0425h8.5475c2.1883333 0 3.9595833.66083333 5.31375 1.9825s2.03125 3.00083333 2.03125 5.0375c0 2.05833333-.6770833 3.7429167-2.03125 5.05375s-3.1254167 1.96625-5.31375 1.96625z"/><path d="m102.765 4.16h-7.5075v19.37h-3.9v-19.37h-7.475v-3.6725h18.8825z"/><path d="m110.11 5.8825c-1.516667 1.45166667-2.275 3.48833333-2.275 6.11 0 2.6216667.758333 4.66375 2.275 6.12625s3.325833 2.19375 5.4275 2.19375 3.91625-.73125 5.44375-2.19375 2.29125-3.5045833 2.29125-6.12625c0-2.62166667-.76375-4.66375-2.29125-6.12625s-3.342083-2.19375-5.44375-2.19375-3.910833.73666667-5.4275 2.21zm-4.615 12.545c-1.105-1.8633333-1.6575-4.0083333-1.6575-6.435 0-2.42666667.557917-4.56625 1.67375-6.41875s2.55125-3.24458333 4.30625-4.17625c1.755-.93166667 3.661667-1.3975 5.72-1.3975s3.965.46583333 5.72 1.3975 3.195833 2.32375 4.3225 4.17625 1.69 3.99208333 1.69 6.41875c0 2.4266667-.563333 4.5716667-1.69 6.435s-2.5675 3.2608333-4.3225 4.1925-3.661667 1.3975-5.72 1.3975-3.965-.4658333-5.72-1.3975-3.195833-2.3291667-4.3225-4.1925z"/><path d="m153.92 23.53h-14.4625v-23.0425h3.9v19.3375h10.5625z"/><path d="m161.46 23.53h-3.965v-23.0425h3.965z"/><path d="m166.985.4875h7.93c2.166667 0 3.878333.57416667 5.135 1.7225s1.885 2.64333333 1.885 4.485c0 1.19166667-.314167 2.22625-.9425 3.10375s-1.451667 1.5004167-2.47 1.86875c1.235.325 2.231667.9858333 2.99 1.9825s1.1375 2.1666667 1.1375 3.51c0 1.8633333-.660833 3.3908333-1.9825 4.5825s-3.044167 1.7875-5.1675 1.7875h-8.515zm3.8675 9.75h3.5425c1.126667 0 2.015-.2925 2.665-.8775s.975-1.365.975-2.34c0-.99666667-.330417-1.78208333-.99125-2.35625s-1.57625-.86125-2.74625-.86125h-3.445zm0 9.9775h3.965c1.17 0 2.107083-.2979167 2.81125-.89375s1.05625-1.4029167 1.05625-2.42125-.330417-1.83625-.99125-2.45375-1.57625-.92625-2.74625-.92625h-4.095z"/></g></g></svg>

<?xml version="1.0" encoding="UTF-8"?>
<svg width="289px" height="64px" viewBox="0 0 289 64" version="1.1" xmlns="http://www.w3.org/2000/svg" xmlns:xlink="http://www.w3.org/1999/xlink">
    <title>crypto-lib-small</title>
    <defs>
        <linearGradient x1="50%" y1="23.0908939%" x2="50%" y2="94.501%" id="linearGradient-1">
            <stop stop-color="#EA38FF" offset="0%"></stop>
            <stop stop-color="#7D2CFE" offset="100%"></stop>
        </linearGradient>
        <linearGradient x1="50%" y1="23.0908939%" x2="50%" y2="94.501%" id="linearGradient-2">
            <stop stop-color="#EA38FF" offset="0%"></stop>
            <stop stop-color="#7D2CFE" offset="100%"></stop>
        </linearGradient>
        <linearGradient x1="50%" y1="23.0908939%" x2="50%" y2="94.501%" id="linearGradient-3">
            <stop stop-color="#EA38FF" offset="0%"></stop>
            <stop stop-color="#7D2CFE" offset="100%"></stop>
        </linearGradient>
        <linearGradient x1="50%" y1="23.0908939%" x2="50%" y2="94.501%" id="linearGradient-4">
            <stop stop-color="#EA38FF" offset="0%"></stop>
            <stop stop-color="#7D2CFE" offset="100%"></stop>
        </linearGradient>
        <linearGradient x1="50%" y1="23.0908939%" x2="50%" y2="94.501%" id="linearGradient-5">
            <stop stop-color="#EA38FF" offset="0%"></stop>
            <stop stop-color="#7D2CFE" offset="100%"></stop>
        </linearGradient>
        <linearGradient x1="50%" y1="23.0908939%" x2="50%" y2="94.501%" id="linearGradient-6">
            <stop stop-color="#EA38FF" offset="0%"></stop>
            <stop stop-color="#7D2CFE" offset="100%"></stop>
        </linearGradient>
        <linearGradient x1="50%" y1="23.0908939%" x2="50%" y2="94.501%" id="linearGradient-7">
            <stop stop-color="#EA38FF" offset="0%"></stop>
            <stop stop-color="#7D2CFE" offset="100%"></stop>
        </linearGradient>
        <linearGradient x1="50%" y1="23.0908939%" x2="50%" y2="94.501%" id="linearGradient-8">
            <stop stop-color="#EA38FF" offset="0%"></stop>
            <stop stop-color="#7D2CFE" offset="100%"></stop>
        </linearGradient>
        <linearGradient x1="50%" y1="23.0908939%" x2="50%" y2="94.501%" id="linearGradient-9">
            <stop stop-color="#EA38FF" offset="0%"></stop>
            <stop stop-color="#7D2CFE" offset="100%"></stop>
        </linearGradient>
        <linearGradient x1="50%" y1="23.0908939%" x2="50%" y2="94.501%" id="linearGradient-10">
            <stop stop-color="#EA38FF" offset="0%"></stop>
            <stop stop-color="#7D2CFE" offset="100%"></stop>
        </linearGradient>
        <linearGradient x1="50%" y1="23.0908939%" x2="50%" y2="94.501%" id="linearGradient-11">
            <stop stop-color="#EA38FF" offset="0%"></stop>
            <stop stop-color="#7D2CFE" offset="100%"></stop>
        </linearGradient>
        <linearGradient x1="50%" y1="23.0908939%" x2="50%" y2="94.501%" id="linearGradient-12">
            <stop stop-color="#EA38FF" offset="0%"></stop>
            <stop stop-color="#7D2CFE" offset="100%"></stop>
        </linearGradient>
        <linearGradient x1="50%" y1="23.0908939%" x2="50%" y2="94.501%" id="linearGradient-13">
            <stop stop-color="#EA38FF" offset="0%"></stop>
            <stop stop-color="#7D2CFE" offset="100%"></stop>
        </linearGradient>
        <linearGradient x1="50%" y1="23.0908939%" x2="50%" y2="94.501%" id="linearGradient-14">
            <stop stop-color="#EA38FF" offset="0%"></stop>
            <stop stop-color="#7D2CFE" offset="100%"></stop>
        </linearGradient>
    </defs>
    <g id="Crypto-Logos" stroke="none" stroke-width="1" fill="none" fill-rule="evenodd">
        <g id="crypto-lib-small" transform="translate(0.750000, 0.812500)" fill-rule="nonzero">
            <g id="CRYPTO-LIB-LOCK">
                <path d="M6.74939122,21.1309071 L6.74939122,24.3056084 C6.74939122,27.6786394 9.42921962,30.3572787 12.8039152,30.3572787 L18.3621395,30.3572787 L18.3621395,27.2817423 L12.8039152,27.2817423 C11.1164485,27.2817423 9.82635454,25.8929591 9.82635454,24.3056084 L9.82635454,21.0317423 C11.315016,20.4365155 12.3076155,18.9485675 12.3076155,17.3612168 C12.3076155,15.1786394 10.5209839,13.2937942 8.23829046,13.2937942 C6.05452401,13.2937942 4.16872765,15.0794745 4.16872765,17.3612168 C4.16872765,19.1468971 5.16132714,20.6350829 6.74939122,21.1309071" id="Path" fill="url(#linearGradient-1)"></path>
                <path d="M12.8039152,49.2064436 L18.3621395,49.2064436 L18.3621395,46.1311449 L12.8039152,46.1311449 C9.42921962,46.1311449 6.74939122,48.8095465 6.74939122,52.1825774 L6.74939122,54.6628871 C5.26049197,55.2578761 4.16872765,56.7460619 4.16872765,58.4325774 C4.16872765,60.6151549 5.95535918,62.5 8.23829046,62.5 C10.4218191,62.5 12.3076155,60.7143197 12.3076155,58.4325774 C12.3076155,56.7460619 11.315016,55.3572787 9.82635454,54.762052 L9.82635454,52.2817423 C9.72695191,50.5954646 11.1164485,49.2064436 12.8039152,49.2064436" id="Path" fill="url(#linearGradient-2)"></path>
                <path d="M4.16872765,42.3612168 C5.85595655,42.3612168 7.34485579,41.3690929 7.94032037,39.8809071 L18.3621395,39.8809071 L18.3621395,36.8056084 L7.84115554,36.8056084 C7.24569097,35.3174226 5.75679172,34.3252987 4.06956282,34.3252987 C1.88579636,34.3255365 1.68970858e-15,36.1114546 1.68970858e-15,38.3931969 C0.100610589,40.6198218 1.93984973,42.3706137 4.16872765,42.3615258" id="Path" fill="url(#linearGradient-3)"></path>
                <path d="M82.7788505,24.4047732 L82.7788505,21.2300719 C84.267512,20.6350829 85.3595141,19.1468971 85.3595141,17.4603816 C85.3595141,15.2778042 83.5728826,13.3929591 81.2899513,13.3929591 C79.1064226,13.3929591 77.2206263,15.1786394 77.2206263,17.4603816 C77.2206263,19.1468971 78.212988,20.5356803 79.7018872,21.1309071 L79.7018872,24.4047732 C79.7018872,26.0912887 78.3123906,27.3809071 76.7243265,27.3809071 L71.1661023,27.3809071 L71.1661023,30.4564436 L76.7243265,30.4564436 C80.0987843,30.4564436 82.7788505,27.6786394 82.7788505,24.4047732" id="Path" fill="url(#linearGradient-1)"></path>
                <path d="M79.8010521,52.2817423 L79.8010521,54.762052 C78.3123906,55.3572787 77.3197911,56.8452268 77.3197911,58.4325774 C77.3197911,60.6151549 79.1064226,62.5 81.3893539,62.5 C83.5728826,62.5 85.4586789,60.7143197 85.4586789,58.4325774 C85.4586789,56.7460619 84.3669146,55.2578761 82.8782532,54.6628871 L82.8782532,52.1825774 C82.8782532,48.8095465 80.198187,46.1311449 76.8234914,46.1311449 L71.2652671,46.1311449 L71.2652671,49.2064436 L76.8234914,49.2064436 C78.4115554,49.2064436 79.8010521,50.5952268 79.8010521,52.2817423" id="Path" fill="url(#linearGradient-2)"></path>
                <path d="M85.3595141,34.3254669 C83.6722852,34.3254669 82.183386,35.3174226 81.5879214,36.8058462 L71.2652671,36.8058462 L71.2652671,39.8809071 L81.6870862,39.8809071 C82.2825508,41.3690929 83.77145,42.3612168 85.4586789,42.3612168 C87.6424454,42.3612168 89.5282418,40.5752987 89.5282418,38.2935564 C89.4273876,36.0670799 87.5882553,34.3164947 85.3595141,34.3254669" id="Path" fill="url(#linearGradient-4)"></path>
                <path d="M25.8063979,57.0437942 L63.7220817,57.0437942 C66.0047751,57.0437942 67.7911689,55.2578761 67.7911689,52.9763717 L67.7911689,26.6865155 C67.7911689,24.4047732 66.0047751,22.6190929 63.7218438,22.6190929 L60.049416,22.6190929 L60.049416,15.278042 C60.049416,6.84546458 53.2006221,-3.37941716e-15 44.764002,-3.37941716e-15 C36.3273819,-3.37941716e-15 29.4788258,6.84522677 29.4788258,15.2778042 L29.4788258,22.6190929 L25.8063979,22.6190929 C23.5234666,22.6190929 21.7368351,24.4047732 21.7368351,26.6865155 L21.7368351,52.9763717 C21.7368351,55.2578761 23.5234666,57.0437942 25.8063979,57.0437942 L25.8063979,57.0437942 Z M48.8335648,47.7182577 C49.0321323,48.3134845 48.5358325,49.0081139 47.8409653,49.0081139 L41.7864413,49.0081139 C41.0918119,49.0081139 40.694677,48.4126493 40.7938418,47.7182577 L42.2825032,41.8651549 C41.2901415,41.0713606 40.694677,39.8809071 40.694677,38.5912887 C40.694677,36.3095465 42.5804733,34.4247013 44.8634046,34.4247013 C47.1463359,34.4247013 49.0321323,36.3095465 49.0321323,38.5912887 C49.0321323,39.9800719 48.4364299,41.1705255 47.4440682,41.8651549 L48.8335648,47.7182577 Z M35.3347824,15.2778042 C35.3347824,10.0199281 39.6029126,5.85310288 44.764002,5.85310288 C50.0247318,5.85310288 54.1932216,10.1190929 54.1932216,15.2778042 L54.1932216,22.6190929 L35.3347824,22.6190929 L35.3347824,15.278042 L35.3347824,15.2778042 Z" id="Shape" fill="url(#linearGradient-5)"></path>
            </g>
            <g id="CRYPTO-LIB-OUTLINES" transform="translate(104.687500, 19.375000)">
                <path d="M11.635,24.0175 C8.40666667,24.0175 5.66041667,22.9233333 3.39625,20.735 C1.13208333,18.5466667 0,15.6433333 0,12.025 C0,8.42833333 1.14833333,5.525 3.445,3.315 C5.74166667,1.105 8.46083333,0 11.6025,0 C14.3758333,0 16.65625,0.704166667 18.44375,2.1125 C20.23125,3.52083333 21.4066667,5.30833333 21.97,7.475 L18.2975,8.71 C17.9291667,7.215 17.1816667,6.00166667 16.055,5.07 C14.9283333,4.13833333 13.4441667,3.6725 11.6025,3.6725 C9.54416667,3.6725 7.76208333,4.40375 6.25625,5.86625 C4.75041667,7.32875 3.9975,9.38166667 3.9975,12.025 C3.9975,14.6033333 4.745,16.62375 6.24,18.08625 C7.735,19.54875 9.53333333,20.28 11.635,20.28 C13.4333333,20.28 14.9175,19.7925 16.0875,18.8175 C17.2575,17.8425 18.0591667,16.64 18.4925,15.21 L22.0675,16.38 C21.5041667,18.525 20.3179167,20.3341667 18.50875,21.8075 C16.6995833,23.2808333 14.4083333,24.0175 11.635,24.0175 Z" id="Path" fill="url(#linearGradient-6)"></path>
                <path d="M37.6675,23.53 L32.825,14.43 L29.965,14.43 L29.965,23.53 L26.0325,23.53 L26.0325,0.4875 L34.8725,0.4875 C37.0391667,0.4875 38.7833333,1.15375 40.105,2.48625 C41.4266667,3.81875 42.0875,5.48166667 42.0875,7.475 C42.0875,9.12166667 41.6216667,10.53 40.69,11.7 C39.7583333,12.87 38.4908333,13.65 36.8875,14.04 L42.0875,23.53 L37.6675,23.53 Z M29.965,10.985 L34.1575,10.985 C35.3491667,10.985 36.3079167,10.6654167 37.03375,10.02625 C37.7595833,9.38708333 38.1225,8.53666667 38.1225,7.475 C38.1225,6.39166667 37.7595833,5.53041667 37.03375,4.89125 C36.3079167,4.25208333 35.3491667,3.9325 34.1575,3.9325 L29.965,3.9325 L29.965,10.985 Z" id="Shape" fill="url(#linearGradient-7)"></path>
                <polygon id="Path" fill="url(#linearGradient-8)" points="51.545 13.78 43.485 0.4875 48.1 0.4875 53.625 10.14 59.1825 0.4875 63.57 0.4875 55.445 13.78 55.445 23.53 51.545 23.53"></polygon>
                <path d="M70.5575,11.0825 L74.62,11.0825 C75.855,11.0825 76.8245833,10.7629167 77.52875,10.12375 C78.2329167,9.48458333 78.585,8.62333333 78.585,7.54 C78.585,6.435 78.2329167,5.5575 77.52875,4.9075 C76.8245833,4.2575 75.855,3.9325 74.62,3.9325 L70.5575,3.9325 L70.5575,11.0825 Z M75.205,14.5275 L70.5575,14.5275 L70.5575,23.53 L66.6575,23.53 L66.6575,0.4875 L75.205,0.4875 C77.3933333,0.4875 79.1645833,1.14833333 80.51875,2.47 C81.8729167,3.79166667 82.55,5.47083333 82.55,7.5075 C82.55,9.56583333 81.8729167,11.2504167 80.51875,12.56125 C79.1645833,13.8720833 77.3933333,14.5275 75.205,14.5275 Z" id="Shape" fill="url(#linearGradient-9)"></path>
                <polygon id="Path" fill="url(#linearGradient-10)" points="102.765 4.16 95.2575 4.16 95.2575 23.53 91.3575 23.53 91.3575 4.16 83.8825 4.16 83.8825 0.4875 102.765 0.4875"></polygon>
                <path d="M110.11,5.8825 C108.593333,7.33416667 107.835,9.37083333 107.835,11.9925 C107.835,14.6141667 108.593333,16.65625 110.11,18.11875 C111.626667,19.58125 113.435833,20.3125 115.5375,20.3125 C117.639167,20.3125 119.45375,19.58125 120.98125,18.11875 C122.50875,16.65625 123.2725,14.6141667 123.2725,11.9925 C123.2725,9.37083333 122.50875,7.32875 120.98125,5.86625 C119.45375,4.40375 117.639167,3.6725 115.5375,3.6725 C113.435833,3.6725 111.626667,4.40916667 110.11,5.8825 Z M105.495,18.4275 C104.39,16.5641667 103.8375,14.4191667 103.8375,11.9925 C103.8375,9.56583333 104.395417,7.42625 105.51125,5.57375 C106.627083,3.72125 108.0625,2.32916667 109.8175,1.3975 C111.5725,0.465833333 113.479167,0 115.5375,0 C117.595833,0 119.5025,0.465833333 121.2575,1.3975 C123.0125,2.32916667 124.453333,3.72125 125.58,5.57375 C126.706667,7.42625 127.27,9.56583333 127.27,11.9925 C127.27,14.4191667 126.706667,16.5641667 125.58,18.4275 C124.453333,20.2908333 123.0125,21.6883333 121.2575,22.62 C119.5025,23.5516667 117.595833,24.0175 115.5375,24.0175 C113.479167,24.0175 111.5725,23.5516667 109.8175,22.62 C108.0625,21.6883333 106.621667,20.2908333 105.495,18.4275 Z" id="Shape" fill="url(#linearGradient-11)"></path>
                <polygon id="Path" fill="url(#linearGradient-12)" points="153.92 23.53 139.4575 23.53 139.4575 0.4875 143.3575 0.4875 143.3575 19.825 153.92 19.825"></polygon>
                <polygon id="Path" fill="url(#linearGradient-13)" points="161.46 23.53 157.495 23.53 157.495 0.4875 161.46 0.4875"></polygon>
                <path d="M166.985,0.4875 L174.915,0.4875 C177.081667,0.4875 178.793333,1.06166667 180.05,2.21 C181.306667,3.35833333 181.935,4.85333333 181.935,6.695 C181.935,7.88666667 181.620833,8.92125 180.9925,9.79875 C180.364167,10.67625 179.540833,11.2991667 178.5225,11.6675 C179.7575,11.9925 180.754167,12.6533333 181.5125,13.65 C182.270833,14.6466667 182.65,15.8166667 182.65,17.16 C182.65,19.0233333 181.989167,20.5508333 180.6675,21.7425 C179.345833,22.9341667 177.623333,23.53 175.5,23.53 L166.985,23.53 L166.985,0.4875 Z M170.8525,10.2375 L174.395,10.2375 C175.521667,10.2375 176.41,9.945 177.06,9.36 C177.71,8.775 178.035,7.995 178.035,7.02 C178.035,6.02333333 177.704583,5.23791667 177.04375,4.66375 C176.382917,4.08958333 175.4675,3.8025 174.2975,3.8025 L170.8525,3.8025 L170.8525,10.2375 Z M170.8525,20.215 L174.8175,20.215 C175.9875,20.215 176.924583,19.9170833 177.62875,19.32125 C178.332917,18.7254167 178.685,17.9183333 178.685,16.9 C178.685,15.8816667 178.354583,15.06375 177.69375,14.44625 C177.032917,13.82875 176.1175,13.52 174.9475,13.52 L170.8525,13.52 L170.8525,20.215 Z" id="Shape" fill="url(#linearGradient-14)"></path>
            </g>
        </g>
    </g>
</svg>
